!!!COM:	Bach, Johann Sebastian
!!!OMV:	Oh God, how many heart pains
!!!OTL:	Oh God, how many heart pains
**kern	**fb	**kern	**kern	**kern	**kern	**kern	**kern	**kern	**kern
*part9	*part9	*part8	*part7	*part6	*part5	*part4	*part3	*part2	*part1
*staff9	*	*staff8	*staff7	*staff6	*staff5	*staff4	*staff3	*staff2	*staff1
*I"Continuo	*	*I"Voice	*I"Voice	*I"Voice	*I"Voice	*I"Timpani	*I"B♭ Trumpet	*I"B♭ Trumpet	*I"B♭ Trumpet
*I'Cont.	*	*I'V	*I'V	*I'V	*I'V	*I'Timp.	*I'B♭ Tpt.	*I'B♭ Tpt.	*I'B♭ Tpt.
*clefF4	*	*clefF4	*clefGv2	*clefG2	*clefG2	*clefF4	*clefG2	*clefG2	*clefG2
*Trd0c0	*	*	*	*	*	*	*	*	*
*k[f#c#]	*	*k[f#c#]	*k[f#c#]	*k[f#c#]	*k[f#c#]	*k[f#c#]	*k[f#c#]	*k[f#c#]	*k[f#c#]
*M4/4	*	*M4/4	*M4/4	*M4/4	*M4/4	*M4/4	*M4/4	*M4/4	*M4/4
*met(c)	*	*met(c)	*met(c)	*met(c)	*met(c)	*met(c)	*met(c)	*met(c)	*met(c)
4D	.	4D	4d	4a	4ff#	4r	4r	4r	4r
=2	=2	=2	=2	=2	=2	=2	=2	=2	=2
4D	.	4D	8dL	4a	4ff#	1r	1r	1r	1r
.	.	.	8eJ	.	.	.	.	.	.
4d	.	4d	4f#	4a	4dd	.	.	.	.
4c#	6	4c#	4e	4a	4ee	.	.	.	.
4cn	4 2	4cn	4d	4a	4ff#	.	.	.	.
=3	=3	=3	=3	=3	=3	=3	=3	=3	=3
4B	6	4B	4d	8gL	2gg	1r	1r	1r	1r
.	.	.	.	8aJ	.	.	.	.	.
8AL	.	8AL	4g	4b	.	.	.	.	.
8GJ	.	8GJ	.	.	.	.	.	.	.
4cn;	5	4cn;	4g;	4ccn;	4ee;	.	.	.	.
4G#X	6	4G#X	4B	4b	4ee	.	.	.	.
=4	=4	=4	=4	=4	=4	=4	=4	=4	=4
8AL	.	8AL	4c#X	4a	4ee	1r	1r	1r	1r
8GnJ	.	8GnJ	.	.	.	.	.	.	.
4F#	6	4F#	4d	4a	4dd	.	.	.	.
4G	.	4G	8gL	4b	4dd	.	.	.	.
.	.	.	8f#J	.	.	.	.	.	.
4A	.	4A	4e	4a	4cc#	.	.	.	.
=5	=5	=5	=5	=5	=5	=5	=5	=5	=5
2.D	.	2.D	2.f#	2.a	2.dd	4D	4dd	8ff#	8aa
.	.	.	.	.	.	.	.	4gg	4bb
.	.	.	.	.	.	4r	4r	.	.
.	.	.	.	.	.	.	.	16ff#LL	16aaLL
.	.	.	.	.	.	.	.	16eeJJ	16ggJJ
.	.	.	.	.	.	8r	8r	8ff#L	8aaL
.	.	.	.	.	.	16DLL	16dLL	16f#L	16aL
.	.	.	.	.	.	16DJJ	16dJJ	16f#JJ	16aJJ
4r	.	4r	4r	4r	4r	16DLL	16f#LL	16aLL	16ddLL
.	.	.	.	.	.	16D	16f#	16a	16dd
.	.	.	.	.	.	16D	16a	16dd	16ff#
.	.	.	.	.	.	16DJJ	16aJJ	16ddJJ	16ff#JJ
=6	=6	=6	=6	=6	=6	=6	=6	=6	=6
!!pagebreak:original
2.r	.	2.r	2r	2.r	2r	8DL	8ddL	8ff#	8aa
.	.	.	.	.	.	16DL	16dL	4gg	4bb
.	.	.	.	.	.	16DJJ	16dJJ	.	.
.	.	.	.	.	.	16DLL	16dLL	.	.
.	.	.	.	.	.	16D	16d	.	.
.	.	.	.	.	.	16D	16d	16ff#LL	16aaLL
.	.	.	.	.	.	16DJJ	16dJJ	16eeJJ	16ggJJ
.	.	.	4r	.	4r	4D	4dd	4ff#	4aa
4AA	.	4AA	8c#L	8aL	4ee	4r	4r	4r	4r
.	.	.	8BJ	8g#XJ	.	.	.	.	.
=7	=7	=7	=7	=7	=7	=7	=7	=7	=7
8AL	.	8AL	8c#L	4a	4ee	1r	1r	1r	1r
8G#X	.	8G#X	8BJ	.	.	.	.	.	.
8A	.	8A	8c#L	8aL	4ee	.	.	.	.
8BJ	#6\	8BJ	8dJ	8g#XJ	.	.	.	.	.
8c#L	6	8c#L	4e	4a	4ee	.	.	.	.
8AJ	.	8AJ	.	.	.	.	.	.	.
4d	8	4d	8dL	4a	4ff#	.	.	.	.
.	nr7	.	8cnJ	.	.	.	.	.	.
=8	=8	=8	=8	=8	=8	=8	=8	=8	=8
2G	9 nr4	2G	4cn	4a	2dd	1r	1r	1r	1r
.	8 3	.	8BL	8gnL	.	.	.	.	.
.	7 2	.	8AJ	8f#J	.	.	.	.	.
4G;	5 3	4G;	4B;	4g;	4dd;	.	.	.	.
8F#L	6	8F#L	4f#	4a	4dd	.	.	.	.
8GJ	.	8GJ	.	.	.	.	.	.	.
=9	=9	=9	=9	=9	=9	=9	=9	=9	=9
4A	.	4A	4e	8aL	4cc#	1r	1r	1r	1r
.	.	.	.	8gJ	.	.	.	.	.
8BL	5	8BL	4d	4f#	4dd	.	.	.	.
8AJ	6 5	8AJ	.	.	.	.	.	.	.
4G	.	4G	4d	4b	4ee	.	.	.	.
8AL	.	4A	4c#	8aL	4ee	.	.	.	.
8AAJ	.	.	.	8gJ	.	.	.	.	.
=10	=10	=10	=10	=10	=10	=10	=10	=10	=10
!!pagebreak:original
2.D	.	2.D	2.A	2.f#	2.dd	4D	4dd	8ff#	8aa
.	.	.	.	.	.	.	.	4gg	4bb
.	.	.	.	.	.	4r	4r	.	.
.	.	.	.	.	.	.	.	16ff#LL	16aaLL
.	.	.	.	.	.	.	.	16eeJJ	16ggJJ
.	.	.	.	.	.	8r	8r	8ff#L	8aaL
.	.	.	.	.	.	16DLL	16dLL	16f#L	16aL
.	.	.	.	.	.	16DJJ	16dJJ	16f#JJ	16aJJ
4r	.	4r	4r	4r	4r	16DLL	16f#LL	16aLL	16ddLL
.	.	.	.	.	.	16D	16f#	16a	16dd
.	.	.	.	.	.	16D	16a	16dd	16ff#
.	.	.	.	.	.	16DJJ	16aJJ	16ddJJ	16ff#JJ
=	=	=	=	=	=	=	=	=	=
2r	.	2r	2r	2r	2r	8DL	8ddL	8ff#	8aa
.	.	.	.	.	.	16DL	16dL	4gg	4bb
.	.	.	.	.	.	16DJJ	16dJJ	.	.
.	.	.	.	.	.	16DLL	16dLL	.	.
.	.	.	.	.	.	16D	16d	.	.
.	.	.	.	.	.	16D	16d	16ff#LL	16aaLL
.	.	.	.	.	.	16DJJ	16dJJ	16eeJJ	16ggJJ
4r	.	4r	4r	4r	4r	4D	4dd	4ff#	4aa
=11:|!	=11:|!	=11:|!	=11:|!	=11:|!	=11:|!	=11:|!	=11:|!	=11:|!	=11:|!
4AA	.	4AA	4e	4a	4cc#	4r	4r	4r	4r
=12	=12	=12	=12	=12	=12	=12	=12	=12	=12
8AL	.	8AL	8eL	4a	4cc#	1r	1r	1r	1r
8G#X	.	8G#X	8f#J	.	.	.	.	.	.
8F#	5 4 #2|	8F#	4g#X	4b	4cc#	.	.	.	.
8E#XJ	.	8E#XJ	.	.	.	.	.	.	.
8F#L	n	8F#L	4f#	4a	4cc#	.	.	.	.
8En	.	8En	.	.	.	.	.	.	.
8D	7 #5\ 3	8D	4f#	4a#X	4cc#	.	.	.	.
8C#J	.	8C#J	.	.	.	.	.	.	.
=13	=13	=13	=13	=13	=13	=13	=13	=13	=13
2BB	.	2BB	2f#	2b	2dd	1r	1r	1r	1r
4BB;	.	4BB;	4f#;	4b;	4dd;	.	.	.	.
4E	6 5	4E	4gn	4b	4cc#	.	.	.	.
=14	=14	=14	=14	=14	=14	=14	=14	=14	=14
!!pagebreak:original
8F#L	4 9	8F#L	4g	4b	4cc#	1r	1r	1r	1r
8G	.	8G	.	.	.	.	.	.	.
8A	6	8A	8f#L	4a	4cc#	.	.	.	.
8BJ	.	8BJ	8gJ	.	.	.	.	.	.
8AL	5	8AL	4a	4e	4cc#	.	.	.	.
8G	.	8G	.	.	.	.	.	.	.
8F#	9 3 5	8F#	4g	4a	4cc#	.	.	.	.
8EJ	.	8EJ	.	.	.	.	.	.	.
=15	=15	=15	=15	=15	=15	=15	=15	=15	=15
2D	4	2D	4g	2a	2dd	2r	2r	2r	2r
.	3	.	8f#L	.	.	.	.	.	.
.	2	.	8eJ	.	.	.	.	.	.
4D;	3	4D;	4f#;	4a;	4dd;	4r	4r	4r	4r
=16	=16	=16	=16	=16	=16	=16	=16	=16	=16
*M3/4	*	*M3/4	*M3/4	*M3/4	*M3/4	*M3/4	*M3/4	*M3/4	*M3/4
4D	.	4D	4d	4a	4ff#	4r	4r	4r	4r
=17	=17	=17	=17	=17	=17	=17	=17	=17	=17
4d	.	4d	4d	2a	4ff#	2.r	2.r	2.r	2.r
4c#	6	4c#	4e	.	4ee	.	.	.	.
4B	7	4B	4f#	4a	4dd	.	.	.	.
=18	=18	=18	=18	=18	=18	=18	=18	=18	=18
4c#	.	4c#	2e	4a	2ee	2.r	2.r	2.r	2.r
4B	.	4B	.	4b	.	.	.	.	.
4A	.	4A	4a	4cc#	4ff#	.	.	.	.
=19	=19	=19	=19	=19	=19	=19	=19	=19	=19
2B	.	2B	2d	4dd	2.gg	2.r	2.r	2.r	2.r
.	.	.	.	4cc#	.	.	.	.	.
4c#	.	4c#	4e	4b	.	.	.	.	.
=20	=20	=20	=20	=20	=20	=20	=20	=20	=20
2d;	.	2d;	2f#;	2a;	2ff#;	2.r	2.r	2.r	2.r
4D	.	4D	4a	4dd	4ff#	.	.	.	.
=21	=21	=21	=21	=21	=21	=21	=21	=21	=21
4A	.	4A	4a	4cc#	2ee	2.r	2.r	2.r	2.r
4B	.	4B	4g	4b	.	.	.	.	.
4cn	.	4cn	4f#	4a	4ee	.	.	.	.
=22	=22	=22	=22	=22	=22	=22	=22	=22	=22
4B	.	4B	4g	4b	2dd#X	2.r	2.r	2.r	2.r
4A	.	4A	2f#	4ccn	.	.	.	.	.
4B	.	4B	.	4a	4dd#	.	.	.	.
=23	=23	=23	=23	=23	=23	=23	=23	=23	=23
4cn	.	4cn	2e	2g	2.ee	2.r	2.r	2.r	2.r
4B	.	4B	.	.	.	.	.	.	.
4A	.	4A	4f#	4ccn	.	.	.	.	.
=24	=24	=24	=24	=24	=24	=24	=24	=24	=24
!!pagebreak:original
2E;	.	2E;	2g;	2b;	2ee;	2.r	2.r	2.r	2.r
4B	.	4B	4d	4b	4ff#	.	.	.	.
=25	=25	=25	=25	=25	=25	=25	=25	=25	=25
2A#X	.	2A#X	4c#	2cc#X	4ff#	2.r	2.r	2.r	2.r
.	.	.	4f#	.	4ee	.	.	.	.
4B	.	4B	4f#	4b	4dd	.	.	.	.
=26	=26	=26	=26	=26	=26	=26	=26	=26	=26
2G	.	2G	4B	2b	2ee	2.r	2.r	2.r	2.r
.	.	.	4c#	.	.	.	.	.	.
4F#	.	4F#	4d	4a	4ff#	.	.	.	.
=27	=27	=27	=27	=27	=27	=27	=27	=27	=27
2E	.	2E	4d	2b	2.gg	2.r	2.r	2.r	2.r
.	.	.	8c#L	.	.	.	.	.	.
.	.	.	8BJ	.	.	.	.	.	.
4A	.	4A	4c#	4a	.	.	.	.	.
=28	=28	=28	=28	=28	=28	=28	=28	=28	=28
2D;	.	2D;	2d;	2a;	2ff#;	2.r	2.r	2.r	2.r
4D#X	.	4D#X	4B	4a	4ff#	.	.	.	.
=29	=29	=29	=29	=29	=29	=29	=29	=29	=29
4E	.	4E	2B	4g	2ee	2.r	2.r	2.r	2.r
4F#	.	4F#	.	4a	.	.	.	.	.
4G	.	4G	4e	4b	4ee	.	.	.	.
=30	=30	=30	=30	=30	=30	=30	=30	=30	=30
4F#	.	4F#	2f#	4a	2dd#X	2.r	2.r	2.r	2.r
4G	.	4G	.	4b	.	.	.	.	.
4A	.	4A	4f#	4ccn	4dd#	.	.	.	.
=31	=31	=31	=31	=31	=31	=31	=31	=31	=31
4G#X	.	4G#X	4B	4b	[2.ee	2.r	2.r	2.r	2.r
4A	.	4A	4e	4ccn	.	.	.	.	.
4AA	.	4AA	4cn	4a	.	.	.	.	.
=32	=32	=32	=32	=32	=32	=32	=32	=32	=32
2E	.	2E	2B	2g#X	2ee;]	2.r	2.r	2.r	2.r
8BBL	.	8BBL	4d	4b	4ff#	.	.	.	.
8C#J	.	8C#J	.	.	.	.	.	.	.
=33	=33	=33	=33	=33	=33	=33	=33	=33	=33
!!pagebreak:original
*M4/4	*	*M4/4	*M4/4	*M4/4	*M4/4	*M4/4	*M4/4	*M4/4	*M4/4
*met(c)	*	*met(c)	*met(c)	*met(c)	*met(c)	*met(c)	*met(c)	*met(c)	*met(c)
8DL	.	8DL	4d	4a	4ff#	1r	1r	1r	1r
8E	.	8E	.	.	.	.	.	.	.
8F#	.	8F#	4d	4a	4dd	.	.	.	.
8DJ	.	8DJ	.	.	.	.	.	.	.
8GL	.	8GL	4c#	4a	4ee	.	.	.	.
8A	.	8A	.	.	.	.	.	.	.
8G	.	8G	4d	4a	4ff#	.	.	.	.
8F#J	.	8F#J	.	.	.	.	.	.	.
=34	=34	=34	=34	=34	=34	=34	=34	=34	=34
8EL	.	8EL	8dL	2b	2gg	1r	1r	1r	1r
8F#	.	8F#	8f#J	.	.	.	.	.	.
8G	.	8G	8eL	.	.	.	.	.	.
8EJ	.	8EJ	8dJ	.	.	.	.	.	.
8AL	.	8AL	4c#	4a	4ee	.	.	.	.
8B	.	8B	.	.	.	.	.	.	.
8A	.	8A	4c#	4a	4ee	.	.	.	.
8GJ	.	8GJ	.	.	.	.	.	.	.
=35	=35	=35	=35	=35	=35	=35	=35	=35	=35
8F#L	.	8F#L	4c#	4a	4ee	1r	1r	1r	1r
8E	.	8E	.	.	.	.	.	.	.
8F#	.	8F#	8dL	4a	4dd	.	.	.	.
8GJ	.	8GJ	8eJ	.	.	.	.	.	.
8AL	.	8AL	4f#	8aL	4dd	.	.	.	.
8G	.	8GJ	.	8b	.	.	.	.	.
8A	.	4A	8eL	8a	4cc#	.	.	.	.
8AAJ	.	.	8AJ	8gJ	.	.	.	.	.
=36	=36	=36	=36	=36	=36	=36	=36	=36	=36
2.DD	.	2.D	2.A	2.f#	2.dd	4D	4dd	8ff#	8aa
.	.	.	.	.	.	.	.	4gg	4bb
.	.	.	.	.	.	4r	4r	.	.
.	.	.	.	.	.	.	.	16ff#LL	16aaLL
.	.	.	.	.	.	.	.	16eeJJ	16ggJJ
.	.	.	.	.	.	8r	8r	8ff#L	8aaL
.	.	.	.	.	.	16DLL	16dLL	16f#L	16aL
.	.	.	.	.	.	16DJJ	16dJJ	16f#JJ	16aJJ
4r	.	4r	4r	4r	4r	16DLL	16f#LL	16aLL	16ddLL
.	.	.	.	.	.	16D	16f#	16a	16dd
.	.	.	.	.	.	16D	16a	16dd	16ff#
.	.	.	.	.	.	16DJJ	16aJJ	16ddJJ	16ff#JJ
=37	=37	=37	=37	=37	=37	=37	=37	=37	=37
!!pagebreak:original
2r	.	2r	2r	2r	2r	8DL	8ddL	8ff#	8aa
.	.	.	.	.	.	16DL	16dL	4gg	4bb
.	.	.	.	.	.	16DJJ	16dJJ	.	.
.	.	.	.	.	.	16DLL	16dLL	.	.
.	.	.	.	.	.	16D	16d	.	.
.	.	.	.	.	.	16D	16d	16ff#LL	16aaLL
.	.	.	.	.	.	16DJJ	16dJJ	16eeJJ	16ggJJ
4r	.	4r	4r	4r	4r	4D	4dd	4ff#	4aa
=||	=||	=||	=||	=||	=||	=||	=||	=||	=||
*-	*-	*-	*-	*-	*-	*-	*-	*-	*-
!!!system-decoration: s1,s2,s3,s4,s5,s6,s7,s8,s9
